X:1
T:James Gibb editions
T:Unus ex discipulis - Ingegneri
%%score [ 1 2 3 4 ]
L:1/8
Q:1/4=96
M:4/4
K:C
V:1 treble nm="Soprano" snm="S"
V:2 treble nm="Alto" snm="A"
V:3 treble-8 nm="Tenor" snm="T"
V:4 bass nm="Bass" snm="B"
V:1
"^Unus ex discipulis""^Marco Antonio Ingegneri\n(1547-92)" G6 G2 | G2 G2 G4 | G2 G2 F4 | E2 E4 E2 | %4
w: U- nus|ex di- sci-|pu- lis me-|is tra- det|
 F4 G4- | G2 G2 G4 | z2 G2 A4 | G2 G2 G2 G2- |[M:4/4] G2 G2 E4 | E8 ||S =G4 G2 G2 | F2 E2 G4 | %12
w: me ho\-|* di- e:|Vae il-|li per quem tra\-|* dar e-|jus.|Me- li- us|il- li e-|
 G4 G2 A2- | A2 G2 F4 | E4 (A4- | A2 ^G^F) G4!fine! |] c6 B2 | A4 G2 A2- | A2 G2 F4 | E2 A4 G2 | %20
w: rat si na\-|* tus non|fu- is\-|* * * set.|Qui in-|tin- git me\-|* cum ma-|num in pa-|
 c4 B4 | A4 z4 | z2 ^G4 A2- | A2 ^G2 A2 =G2- | G2 =F2 E2 B2 | c4 A4 | B2 G2 (c2 BA | c4 B4) | %28
w: ro- psi-|de,|hic me|* tra- di- tu\-|* rus est in|ma- nus|pec- ca- to\- * *||
 A8!D.S.! |] %29
w: rum.|
V:2
 E6 E2 | E2 E2 E4 | E2 E2 D4 | B,2 B,4 ^C2 | D4 E4- | E2 D2 D4 | z2 E2 F4 | E2 E2 E2 E2- | %8
w: U- nus|ex di- sci-|pu- lis me-|is tra- det|me ho\-|* di- e:|Vae il-|li per quem tra\-|
[M:4/4] E2 D2 C4 | B,8 || E4 E2 E2 | C2 C2 D4 | E4 E2 F2- | F2 E2 D4 | B,2 (C4 D2) | E8 |] A6 =G2 | %17
w: * dar e-|jus.|Me- li- us|il- li e-|rat si na\-|* tus non|fu- is\- *|set.|Qui in-|
 F4 E2 F2- | F2 E2 A4 | G2 c4 B2- | B2 A4 ^G2 | A4 z4 | z2 B4 c2- | c2 B2 c2 B2- | B2 A2 G4 | %25
w: tin- git me\-|* cum ma-|num in pa\-|* ro- psi-|de,|hic me|* tra- di- tu\-|* rus est|
 E4 ^F4 | D2 E4 ^F2 | (GE A3 ^G/^F/ G2) | A8 |] %29
w: in ma-|nus pec- ca-|to\- * * * * *|rum.|
V:3
 c6 c2 | c2 c2 c4 | c2 c2 A4 | ^G2 G4 A2 | A4 c4- | c2 B2 B4 | z2 c2 c4 | c2 c2 c2 c2- | %8
w: U- nus|ex di- sci-|pu- lis me-|is tra- det|me ho\-|* di- e:|Vae il-|li per quem tra\-|
[M:4/4][K:treble-8] c2 B2 A4 | ^G8 || B4 B2 B2 | A2 c2 B4 | c4 c2 c2- | c2 c2 A4 | G4 (c2 BA | %15
w: * dar e-|jus.|Me- li- us|il- li e-|rat si na\-|* tus non|fu- is\- * *|
 c2 B2) B4 |][M:4/4] z8 | z8 | z8 | z8 | z8 | z8 |[M:4/4][K:treble-8] e8 | e4 A2 B2 | c2 d2 e4 | %25
w: * * set.|||||||hic|me tra- di-|tu- rus est|
 A4 d4 | B2 c4 d2 | e8 | A8 |] %29
w: in ma-|nus pec- ca-|to-|rum.|
V:4
 C,6 C,2 | C,2 C,2 C,4 | C,2 C,2 D,4 | E,2 E,4 A,,2 | D,4 C,4- | C,2 G,,2 G,,4 | z2 C,2 F,4 | %7
w: U- nus|ex di- sci-|pu- lis me-|is tra- det|me ho\-|* di- e:|Vae il-|
 C,2 C,2 C,2 C,2- |[M:4/4] C,2 G,,2 A,,4 | E,8 || E,4 E,2 E,2 | F,2 A,2 G,4 | C,4 C,2 F,2- | %13
w: li per quem tra\-|* dar e-|jus.|Me- li- us|il- li e-|rat si na\-|
 F,2 C,2 D,4 | E,4 F,4 | E,8 |][M:4/4] z8 | z8 | z8 | z8 | z8 | z8 |[M:4/4] z8 | z8 | z8 | z8 | %26
w: * tus non|fu- is-|set.|||||||||||
 z8 | z8 | z8 |] %29
w: |||

